icon/svgs/brands/space-awesome.svg

<svg xmlns="http://www.w3.org/2000/svg" viewBox="0 0 512 512"><!--! Font Awesome Free 7.1.0 by @fontawesome - https://fontawesome.com License - https://fontawesome.com/license/free (Icons: CC BY 4.0, Fonts: SIL OFL 1.1, Code: MIT License) Copyright 2025 Fonticons, Inc. --><path fill="currentColor" d="M96 256l32 0 0 256-128 0 0-160 32 0 0-32 32 0 0-32 32 0 0-32zm416 96l0 160-128 0 0-256 32 0 0 32 32 0 0 32 32 0 0 32 32 0zM320 64l32 0 0 384-32 0 0-32-128 0 0 32-32 0 0-384 32 0 0-32 32 0 0-32 64 0 0 32 32 0 0 32zm-32 64l-64 0 0 64 64 0 0-64z"/></svg>

<svg xmlns="http://www.w3.org/2000/svg" viewBox="0 0 512 512"><!--! Font Awesome Free 6.6.0 by @fontawesome - https://fontawesome.com License - https://fontawesome.com/license/free (Icons: CC BY 4.0, Fonts: SIL OFL 1.1, Code: MIT License) Copyright 2024 Fonticons, Inc. --><path d="M96 256H128V512H0V352H32V320H64V288H96V256zM512 352V512H384V256H416V288H448V320H480V352H512zM320 64H352V448H320V416H192V448H160V64H192V32H224V0H288V32H320V64zM288 128H224V192H288V128z"/></svg>
